X:1051
T:Paddy Gone to France
R:reel
S:Recording of Eddie Clarke from Miltown Malbay 1984
H:See also #908, #912
Z:id:hn-reel-1051
M:C|
L:1/8
K:Ador
eA~A2 e2dB | ABGA Bd~d2 | eA~A2 e2dB | ABGA BGG2 |
eABA e2dB | ABGA Bd~d2 | ~e3f gedB | ABGA BGG2 :|
|: (3efg fg egde | g2fd ea~a2 | g2fg egdB | ABGA BGG2 |
(3efg fg egde | gbag ea~a2 | bgga (3gfe dB | ABGA BGG2 :|

